!!!!SEGMENT: pl-wnifc--493-n--004_oginski-michal-kleofas--16-polonaises-4-polonaise-in-es.krn
!!!cenid: 18xx:3863
!!!COM: Ogiński, Michał Kleofas
!!!COM-rismID: pe30002379
!!!CDT: 1765/09/25-1833/10/15
!!!CNT:
!!!GTL: 16 Polonaises
!!!OTL: 4. [Polonaise in Es]
!!!OMV: 004
!!!PDT: 1864
!!!AGN:
!!!SMS-siglum: PL-Wnifc
!!!SMS-shelfmark: 493/n
!!!SMS-shelfwork: 001-004 G
!!!SMS-variant:
!!!SMS-altvar:
!!!NIFC-rismSourceID: 1001157350
!!!NIFC-rismChildID: 1001157355
!!!NIFC-islandoraID: nifc:212371
!!!URL-pdf-islandora: https://repozytorium.nifc.pl/islandora/object/nifc%3A212371/datastream/PDF/view
!!!URL-scan: https://polish.musicsources.pl/pl/lokalizacje/galeria/druki-muzyczne/16843 @EN{Scan on Polish Music Sources Website} @PL{Skany w portalu Dziedzictwo Muzyki Polskiej w otwartym dostępie}
!!!IIIF:
!!!ONB-nifc: UWAGA: w zbiorze znajduje się 14 Polonezów z Triami, pliki są numerowane jak w źródle.
!!!AIN: 1 piano
!!!key: E-
!!!OMD:
!!!OMD-mod: Moderato assai
!!!filter-modern: sic -sq | shed -k -e "s/LO:N:vis/LO:n:vis:/L" | shed -e "s/TX(.*):t=P:/tx$1:t=P:/LG" | shed -e "s/:rj/:RJ/L" | shed -k -e "s/([^a-gA-Gn#X-])[<>]/$1/g" | shed -e "s/LO:DY:(a|b|rj)/LO:dy:$1/L" | shed -e "s/-//B" | autostem -r | modori -m
**kern	**kern	**dynam
*part1	*part1	*part1
*staff2	*staff1	*
*I"Piano.	*I"Piano.	*
*I'	*I'	*
*Ipiano	*Ipiano	*
*ICklav	*ICklav	*
*IGsolo	*IGsolo	*
*mI"Pianoforte	*mI"Pianoforte	*
*mI'pf	*mI'pf	*
*>[A,A,B,B,A,A,C,C,D,D,C,C]	*>[A,A,B,B,A,A,C,C,D,D,C,C]	*
*clefF4	*clefG2	*
*k[b-e-a-]	*k[b-e-a-]	*
*E-:	*E-:	*
*M3/4	*M3/4	*
=1	=1	=1
*>A	*>A	*
!	!LO:TX:a:t=Moderato assai.:mod=	!
!LO:TX:a:t=P:problem:mixed beam	!LO:TX:b:i:t=dol.:mod=dolce	!
.	8qff#X/	p
(<8e->\L 8g>	4gg/	.
8B-/J)	.	.
!LO:TX:a:t=P:problem:mixed beam	!	!
(<8e->\L 8g>	4ee-/	.
8B-/J)	.	.
!LO:TX:a:t=P:problem:mixed beam	!	!
(<8e->\L 8g>	8.rcc	.
8B-/J)	.	.
.	16gg/	.
=2	=2	=2
!LO:TX:a:t=P:problem:mixed beam	!	!
(<8d>\L 8a->	8.ffnsSSs/L	.
8B-/J)	.	.
.	16gg/Jk	.
!LO:TX:a:t=P:problem:mixed beam	!	!
(<8e->\L 8g>	4ee-y/	.
8B-/J)	.	.
!LO:TX:a:t=P:problem:mixed beam	!	!
(<8e->\L 8g>	4r	.
8B-/J)	.	.
=3	=3	=3
!LO:TX:a:t=P:problem:mixed beam	!	!
(<8d>\L 8a->	16cc/LL	.
.	16b-sSSs/	.
8B-/J)	16cc/	.
.	16dd/JJ	.
!LO:TX:a:t=P:problem:mixed beam	!	!
(<8d>\L 8a->	16ee-/LL	.
.	16ff/	.
8B-/J)	16gg/	.
.	16aa-/JJ	.
!LO:TX:a:t=P:problem:mixed beam	!	!
(<8d>\L 8a->	8.bb-/L	.
8B-/J)	.	.
.	16aa-/Jk	.
!!LO:LB:g=original
=4	=4	=4
!LO:TX:a:t=P:problem:mixed beam	!	!
(<8e->\L 8g>	8.ggsS/L	.
8B-/J)	.	.
.	16aa-/Jk	.
!LO:TX:a:t=P:problem:mixed beam	!	!
(<8d>\L 8a->	4ff/	.
8B-/J)	.	.
!LO:TX:a:t=P:problem:mixed beam	!	!
(<8d>\L 8a->	4rcc	.
8B-/J)	.	.
=5	=5	=5
!LO:TX:a:t=P:problem:mixed beam	!	!
(<8e->\L 8g>	8bb-sSSs/L	.
8B-/J)	(>16eee-/L	.
.	16bb-/JJ)	.
!LO:TX:a:t=P:problem:mixed beam	!	!
(<8e->\L 8g>	4gg/	.
8B-/J)	.	.
!LO:TX:a:t=P:problem:mixed beam	!	!
(<8e->\L 8g>	4r	.
8B-/J)	.	.
=6	=6	=6
(<8e->\L 8g>	16gg/LL	.
.	(32ccc/L	.
.	32bb-/JJJ	.
8B->/J) 8d> 8a->	32aa-/LLL	.
.	32gg/	.
.	32aa-/	.
.	32ff/JJJ)	.
!LO:TX:a:t=P:problem:mixed beam	!	!
(<8e->\L 8g>	4ee-/	.
8B-/J)	.	.
!LO:TX:a:t=P:problem:mixed beam	!	!
(<8e->\L 8g>	8rcc	.
8B-/J)	8dd/	.
=7	=7	=7
8A-\L	8cc/L	<
8F\	8dd/	.
8G\	8ee-/	.
8A-\	8ff/	.
8B-\	8.gg/	.
8B-\J 8d> 8a->	.	.
.	16ff/Jk	[[
!!LO:LB:g=original
=8	=8	=8
8e->\L 8g>	8ee-sS/L	p
8B->\J 8d> 8a->	16.gg/L	.
.	32ff/JJk	.
8e->\L 8g>	8ee-sS/L	.
8B->\J 8d> 8a->	16.gg/L	.
.	32ff/JJk	.
!	!LO:TX:b:i:t=Fine.:mod=	!
4e->\ 4g>	4ee->/	.
!!LO:TX:a:B:rj:t=:mod=Fine
=9:|!|:	=9:|!|:	=9:|!|:
*>B	*>B	*
(8B-\L 8d	4ff/	p
8f>\J)	.	.
(8B-\L 8d	4dd/	.
8f>\J)	.	.
(8B-\L 8d	8r	.
8f>\J)	8ff/	.
=10	=10	=10
(8An\L 8e-	(<8.ccsS/L	.
8f>\J)	.	.
.	16dd/Jk)	.
(8B-\L 8d	4b-/	.
8f>\J)	.	.
(8B-\L 8d	4r	.
8f>\J)	.	.
=11	=11	=11
4B-\ 4d	(16b-\LL	<
.	16an\	.
.	16cc\	.
.	16b-\JJ)	.
4r	(16dd\LL	.
.	16cc\	.
.	16ee-\	.
.	16dd\JJ)	.
4r	(16ff\LL	.
.	16ee-\	.
.	16gg\	.
.	16ff\JJ)	[[
!!LO:LB:g=original
=12	=12	=12
4r	8.gg/L 8.bb-	>
.	16ff/Jk 16aa-X	.
8.r	4dd/ 4ff	]
16B-\KL 16f>	.	.
8.B-\ 8.f>	4r	.
16B-\Jk 16f>	.	.
=13	=13	=13
4e-\ 4g	8.ee-/L 8.gg	>
.	(>32aa-/LL	.
.	32gg/JJJ)	.
8.r	4dd/ 4ff	]
16B-\KL 16f>	.	.
8.B-\ 8.f>	4r	.
16B-\Jk 16f>	.	.
=14	=14	=14
(4B->\ 4g>	(4b-\ 4ee- 4gg	p
4B->\) 4f>	4b-\) 4dd 4ff	.
4r	4r	.
=15	=15	=15
8r	8b-/L	f
8an>\L	8cc/	<
8a-X>\	8dd/	.
8g>\	8ee-/	.
8f>\	8ff/	.
8e->\J	8gg/J	[[
=16	=16	=16
4d>\	(16aa-/LL	p >
.	16b-/	.
.	16aa-/	.
.	16cc/JJ)	.
!	!LO:TX:b:i:t=rallent.	!
4r	(>16aa-/LL	.
.	16dd/	.
.	16aa-/	.
.	16ee-/JJ)	.
!LO:TX:b:i:t=Da Capo\n al Fine.:mod=	!	!
4r	(>16aa-/LL	.
.	16een/	.
.	16ff/	.
.	16ff#X/JJ)	]]
!!LO:PB:g=original
!LO:MO:mod==17:|!|:	!LO:MO:mod==17:|!|:	!LO:MO:mod==17:|!|:
!!LO:TX:a:B:rj:t=:mod=Da Capo al Fine
=17||	=17||	=17||
*>C	*>C	*
!LO:TX:a:t=P:problem:mixed beam	!LO:TX:a:t=Trio.	!
(<8e->\L 8g>	8gg/L 8bb-	p
8B-/J)	16.gg/L 16.bb-	.
.	32gg/JJk 32bb-	.
!LO:TX:a:t=P:problem:mixed beam	!	!
(<8e->\L 8g>	8gg/ 8eee-	.
8B-/J)	8r	.
!LO:TX:a:t=P:problem:mixed beam	!	!
(<8e->\L 8g>	4r	.
8B-/J)	.	.
=18	=18	=18
!LO:TX:a:t=P:problem:mixed beam	!	!
(<8e->\L 8g>	8ee-/L 8gg	.
8B-/J)	16.ee-/L 16.gg	.
.	32ee-/JJk 32gg	.
!LO:TX:a:t=P:problem:mixed beam	!	!
(<8e->\L 8g>	8gg/ 8bb-	.
8B-/J)	8r	.
!LO:TX:a:t=P:problem:mixed beam	!	!
(<8e->\L 8g>	4r	.
8B-/J)	.	.
=19	=19	=19
!LO:TX:a:t=P:problem:mixed beam	!	!
(<8e->\L 8g>	4.b-^/ 4.ee-	.
8B-/J)	.	.
!LO:TX:a:t=P:problem:mixed beam	!	!
(<8e->\L 8g>	.	.
8B-/J)	8b-/L 8ee-	.
!LO:TX:a:t=P:problem:mixed beam	!	!
(<8e->\L 8g>	8b-/ 8ee-	.
8B-/J)	8b-/J 8ee-	.
!!LO:LB:g=original
=20	=20	=20
!LO:TX:a:t=P:problem:mixed beam	!	!
(<8d>\L 8a->	8.b-/L 8.gg	.
8B-/J)	.	.
.	16ff/Jk	.
!LO:TX:a:t=P:problem:mixed beam	!	!
(<8d>\L 8a->	4b-/ 4ff	.
8B-/J)	.	.
!LO:TX:a:t=P:problem:mixed beam	!	!
(<8d>\L 8a->	4r	.
8B-/J)	.	.
=21	=21	=21
!LO:SIC:s=(4Bn\ 4d> 4f> 4a->	!LO:SIC:s=(((4dd^>/ 4ff 4aa-	!
(4Bn\ (((4d> (4f> (4a->	(4dd^>/ 4ff 4aa-	fp
!LO:SIC:s=4c>\ 4e-> 4g>)	!LO:SIC:s=8ee->/L))) 8gg	!
4c>\)))) 4e-> 4g>	8ee->/L) 8gg	.
.	8ccc'/	.
4r	8ccc'>/	.
.	8ccc'>/J	.
=22	=22	=22
!LO:SIC:s=((((4B-X\ 4d> 4f> 4a->	!LO:SIC:s=([4b-X/ 4dd 4ff 4aa-^>	!
(4B-X\ 4d> 4f> 4a->	(([4b-X/ 4dd 4ff 4aa-^>	fp
!LO:SIC:s=8e->\L)))) 8g>	!LO:SIC:s=8b-/L]) 8ee- 8gg	!
8e->\L) 8g>	8b-/L])) 8ee- 8gg	.
8g>'\ 8b->	8ee-'/	.
8g>'\ 8b->	8ee-'/	.
8g>'\J 8b->	8ee-'/J	.
!!LO:LB:g=original
=23	=23	=23
8a->\L 8cc>	8ff'/L	<
8a->\ 8cc>	8ff'/	.
8an>\ 8cc>	8ee-'/ 8gg-X	.
8a>\ 8cc>	8ee-'/ 8gg-	.
8b->\	8ee-'/ 8ggn	.
8b->\J	8ee-'/J 8gg	[
=24	=24	=24
4B-\ 4f> 4a-X>	(16bb-/LL	>
.	16aa-X/)	.
.	16ff'/	.
.	16dd'/JJ	.
!	!LO:SIC:s=(>4a-/ 4ff	!
8r	((>4a-/ 4ff	]
8B-\L	.	.
!	!LO:SIC:s=8g/) 8ee-	!
8e->\J	8g/)) 8ee-	.
!LO:TX:a:i:t=Fine:mod=	!	!
8r	8r	.
!!LO:TX:a:B:rj:t=:mod=Fine
=25:|!|:	=25:|!|:	=25:|!|:
*>D	*>D	*
8BB-/L 8B-	8d'\L 8f 8b-	p <
8AAn'/ 8An	8e-'\ 8f 8cc	.
8AA-X'/ 8A-X	8f'\ 8b- 8dd	.
8GG'/ 8G	8g'\ 8b- 8ee-	.
8FF'/ 8F	8a-'\ 8dd 8ff	.
8EE-'/J 8E-	8g'\J 8b- 8ee- 8gg	[[
!!LO:LB:g=original
=26	=26	=26
8DD'/L 8D	8b-'\L 8ff 8aa-	<
8EE-'/ 8E-	8b-'\ 8ee- 8gg	.
8AA-'/ 8A-	8cc'\ 8ff	.
8GG'/ 8G	8b-'\ 8ee-	.
8FF'/ 8F	8a-'\ 8b- 8dd	.
8EE-'/J 8E-	8g'\J 8b- 8ee-	.
=27	=27	=27
*	*^	*
4AA-\ 4A-	8cc\L 8ff	2ryy	f
.	8cc\J 8ff	.	.
4AA-\ 4A-	8r	.	.
.	8cc\ 8ffsS	.	.
!	!	!	!LO:HP:a
4AAn^\ 4An	(8gg-X/L	4cc\	>
.	8ee-/J)	.	]]
*	*v	*v	*
=28	=28	=28
8B-\L 8d	16b-/LL	p
.	16bb-/	.
8c>\J 8e->	16b-/	.
.	16bb-/JJ	.
8d>\L 8f>	16b-/LL	>
.	16bb-/	.
8e->\J 8g>	16b-/	.
.	16bb-/JJ	.
8f>\L 8a->	16b-/LL	.
.	16bb-/	.
!LO:TX:b:i:t=Trio Da Capo \nal Fine.:mod=	!	!
8B->\J 8f>	16b-/	.
.	16bb-/JJ	]]
!LO:MO:mod==:|!	!LO:MO:mod==:|!	!LO:MO:mod==:|!
!!LO:TX:a:B:t=:mod=Trio Da Capo al Fine
==	==	==
*-	*-	*-
!!!RDF**kern: > = above
!!!RDF**kern: < = below
!!!system-decoration: {(*)}
!!!ENC: Berenika Jozajtis
!!!END: 2022-07-24
!!!ENC: Urszula Świątek
!!!END: 2022-08-22
!!!ENC-modern: Andrzej Borzym
!!!END-modern: 2022-08-30
!!!YEC: Copyright 2022 Narodowy Instytut Fryderyka Chopina (https://polishscores.org)
!!!YEM: License CC-BY-4.0 (https://creativecommons.org/licenses/by/4.0)
